images/jquery.svg

<?xml version="1.0" encoding="UTF-8" standalone="no"?>
<svg width="512px" height="116px" viewBox="0 0 512 116" version="1.1" xmlns="http://www.w3.org/2000/svg" xmlns:xlink="http://www.w3.org/1999/xlink">
    <defs></defs>
    <g stroke="none" stroke-width="1" fill="none" fill-rule="evenodd">
        <g>
            <path d="M489.718192,8.64613026 L511.13882,8.76383142 C511.13882,8.76383142 471.313656,62.7278468 468.06216,67.1259464 C467.005794,68.5501302 465.401134,70.0861302 464.588016,71.9899464 C462.531188,76.7764598 460.419432,87.2754022 460.419432,87.2754022 L440.82023,87.3725058 C440.82023,87.3725058 443.86967,76.4292414 443.744122,70.600092 C443.633288,65.5075556 441.034054,60.421885 439.57554,55.314636 C438.102314,50.1455938 436.101394,40.02918 436.101394,40.02918 L456.25085,40.02918 L459.029578,51.1460536 L489.718192,8.64613026" fill="#1A1918"></path>
            <path d="M449.157394,20.0268506 C453.110192,22.4102988 455.535816,35.5555556 455.535816,35.5555556 C455.535816,35.5555556 434.8518,35.8605978 423.595648,35.8605978 L413.868628,35.8605978 L402.057318,87.2754022 L383.993134,87.2754022 C383.993134,87.2754022 395.234574,31.400705 397.888736,21.2705594 C398.749916,17.9916015 403.78066,18.5536245 412.277702,18.5536245 L425.846682,18.5536245 C434.608552,18.5536245 444.849532,17.4354636 449.157394,20.0268506" fill="#1A1918"></path>
            <path d="M365.059924,45.0667892 C365.059924,45.0667892 365.622928,41.7662528 363.149242,37.9448888 C361.037486,34.6865288 359.08561,33.929318 353.527172,33.7557088 C337.831724,33.2623448 338.136766,44.89318 338.136766,44.89318 L365.059924,45.0667892 L365.059924,45.0667892 Z M382.082452,31.7479234 C384.382528,40.0438928 379.99816,59.5391264 379.99816,59.5391264 C379.99816,59.5391264 357.104306,59.1565978 344.56423,59.5391264 C340.66538,59.6578084 335.997548,59.1154022 334.83721,60.9289808 C333.204108,63.4713256 335.433564,67.383908 337.323648,69.0366284 C339.499158,70.9404444 343.736398,71.1562298 345.258666,71.3504368 C355.436874,72.6431878 376.7398,71.6839234 376.7398,71.6839234 L373.04987,88.0247662 C373.04987,88.0247662 342.94584,89.5333026 327.88892,85.940475 C324.915984,85.2323066 322.12941,83.8012568 320.246192,81.7718928 C319.73223,81.2167356 319.286928,80.459525 318.80043,79.8062836 C318.412016,79.284475 317.280122,77.5689808 316.772046,76.213456 C313.33321,67.0494406 317.175172,49.4923524 320.940628,40.0850882 C321.378084,38.9943908 321.927356,37.6123832 322.505072,36.4373334 C323.226974,34.971954 323.838038,33.3182528 324.414774,32.4423602 C324.803188,31.838161 325.2838,31.4487662 325.686928,30.8788966 C326.151846,30.2050574 326.693272,29.551816 327.194482,28.9691954 C328.583356,27.3566896 330.160552,26.2169502 332.057502,24.800613 C338.330974,20.1033564 349.68423,16.4556015 363.32285,17.8523218 C368.457564,18.3800153 376.212108,20.2141916 379.99816,25.4950498 C381.012352,26.905502 381.512582,29.7048276 382.082452,31.7479234 L382.082452,31.7479234 L382.082452,31.7479234 Z" fill="#1A1918"></path>
            <path d="M299.22869,18.4908506 L316.744582,18.3868812 C316.744582,18.3868812 306.983234,64.6944368 302.008398,87.2754022 L281.858942,87.2754022 C267.776,87.2754022 255.234942,89.019341 249.899158,78.9372568 C244.72325,69.1484444 249.662774,53.0498698 251.983448,42.1134712 C253.623418,34.3736398 257.076966,18.5536245 257.076966,18.5536245 L275.224522,18.3868812 C275.224522,18.3868812 270.096674,43.0168276 267.96334,55.314636 C267.199264,59.7196016 265.62305,63.8675862 267.268904,67.1259464 C268.832368,70.22541 271.020628,70.4470804 277.69036,70.600092 C279.803096,70.649134 286.722942,70.600092 286.722942,70.600092 L299.22869,18.4908506" fill="#1A1918"></path>
            <path d="M217.243954,51.8404904 C219.07813,45.3237702 221.752888,38.2577778 221.412536,32.3864522 C221.04472,26.106115 215.778574,20.3878008 212.380934,19.1862682 C202.14682,15.5728429 192.565946,20.624184 188.758314,24.7437242 C183.83154,30.0804904 182.164107,36.3127662 180.420169,44.89318 C179.121533,51.2637548 178.058299,57.9893946 180.420169,62.957364 C184.602483,71.7398314 197.64377,69.8222836 211.685518,69.9056552 C213.769808,64.3197548 215.49315,58.0453026 217.243954,51.8404904 L217.243954,51.8404904 L217.243954,51.8404904 Z M241.561992,26.1335786 C243.562912,40.6824214 235.885854,56.7398008 230.59813,70.7040614 C235.989824,71.1905594 240.714544,70.6285364 241.054896,71.030682 C241.40898,71.5524904 237.441472,87.6991264 236.058482,87.7403218 C231.779066,87.852138 217.59902,87.969839 211.685518,87.969839 C192.391356,87.969839 174.340904,89.2272796 165.135693,79.6326744 C161.397701,75.7348046 158.81318,69.0503602 158.187402,64.3472184 C157.144766,56.4955708 158.451249,47.8523832 160.271693,40.7245978 C161.918529,34.2902682 164.030284,28.2178698 167.219985,22.659433 C175.327632,8.50685058 189.432153,-1.99797701 213.075372,0.426666666 C217.660812,0.89943295 224.247172,2.9072184 228.360828,5.28968582 C228.645272,5.45740996 229.639846,6.2489502 229.868384,6.38822988 C235.42682,9.92514942 240.491892,18.3662835 241.561992,26.1335786 L241.561992,26.1335786 L241.561992,26.1335786 Z" fill="#1A1918"></path>
            <path d="M156.193349,18.5742222 C155.026146,23.88941 153.858943,29.9137472 152.628966,35.166161 L133.174927,35.166161 C134.682483,29.3438774 135.835954,23.5559234 137.34351,18.4908506 C143.56892,18.4908506 149.356874,18.5742222 156.193349,18.5742222" fill="#1A1918"></path>
            <path d="M132.48049,40.02918 L151.239111,40.02918 C148.787004,53.6060076 143.930851,75.5052874 140.123218,90.748567 C137.73977,100.288245 136.148843,107.250268 129.700782,112.286897 C129.124046,112.739065 128.79154,112.524261 128.311908,112.982314 C127.123126,114.115188 121.627464,115.428536 118.584889,115.761042 C113.637517,116.296582 108.044751,115.830682 101.965487,115.706115 C103.556414,109.890697 105.356261,102.908077 106.773579,97.6968582 C121.593134,99.489839 121.968797,85.4824214 124.837762,71.9899464 C126.49833,64.1942068 131.529073,43.1561072 132.48049,40.02918" fill="#1A1918"></path>
            <g transform="translate(0.000000, 8.827586)" fill="#21609B">
                <path d="M88.7084138,66.6365058 L88.3062682,67.678161 C81.4550804,81.0176246 69.3171494,89.2027586 52.0033104,89.5637088 C43.9093946,89.7304522 36.1970268,87.6540076 31.1594176,85.3951264 C20.286774,80.5105288 11.1423755,71.4514636 6.14792338,61.7725058 C-1.01615326,47.897502 -2.30792338,28.596475 12.5881379,14.180046 C12.8176552,14.180046 10.7814253,17.3059923 11.0109425,17.3059923 L10.6009502,18.6399387 C-0.133394636,52.2465594 32.9376858,81.046069 65.0857932,77.7523984 C72.8118928,76.9608582 82.6644598,72.729502 88.7084138,66.6365058"></path>
                <path d="M69.2543754,52.7399234 C77.3424062,52.7958314 85.7904062,49.0156628 90.792705,43.7083218 C86.416184,54.8183296 73.7436934,61.9598468 56.7486284,59.6882146 C42.5195402,57.7843984 28.9642912,43.4650728 27.5675708,29.1173026 C26.5465134,18.675249 30.1864214,12.4429732 36.183295,4.88361686 C34.0990038,8.83739464 33.3202146,11.8868352 33.1260076,13.8318467 C30.8475096,36.4196782 51.1695938,52.6222222 69.2543754,52.7399234"></path>
                <path d="M89.980567,24.6848736 C88.7231264,27.5685518 81.483525,33.0151724 78.2869578,33.6958774 C65.6281992,36.3922146 57.5205518,30.389456 53.2744828,23.558866 C52.64282,22.5378084 51.4756168,19.7522146 51.2666974,19.0430651 C49.619862,13.443433 50.3770728,4.9738544 55.290115,0.58948659 C53.810023,4.75806896 53.5942376,9.60049042 54.3730268,12.7480153 C54.8448122,14.6518314 56.282728,17.9739464 57.7216246,20.0641226 C60.340475,23.8717548 62.0010422,24.7966896 65.3643524,26.8182068 C66.878774,27.7284292 68.5040306,28.4581762 69.2063142,28.659249 C72.3950344,29.5969348 79.1275402,32.0706206 89.980567,24.6848736"></path>
            </g>
        </g>
    </g>
</svg>

<?xml version="1.0" encoding="UTF-8" standalone="no"?>
<svg
   xmlns:dc="http://purl.org/dc/elements/1.1/"
   xmlns:cc="http://creativecommons.org/ns#"
   xmlns:rdf="http://www.w3.org/1999/02/22-rdf-syntax-ns#"
   xmlns:svg="http://www.w3.org/2000/svg"
   xmlns="http://www.w3.org/2000/svg"
   xmlns:sodipodi="http://sodipodi.sourceforge.net/DTD/sodipodi-0.dtd"
   xmlns:inkscape="http://www.inkscape.org/namespaces/inkscape"
   width="98.328529"
   height="115.93532"
   viewBox="0 0 98.328529 115.93532"
   version="1.1"
   id="svg2"
   inkscape:version="0.91 r13725"
   sodipodi:docname="jquery.svg">
  <metadata
     id="metadata34">
    <rdf:RDF>
      <cc:Work
         rdf:about="">
        <dc:format>image/svg+xml</dc:format>
        <dc:type
           rdf:resource="http://purl.org/dc/dcmitype/StillImage" />
        <dc:title></dc:title>
      </cc:Work>
    </rdf:RDF>
  </metadata>
  <sodipodi:namedview
     pagecolor="#ffffff"
     bordercolor="#666666"
     borderopacity="1"
     objecttolerance="10"
     gridtolerance="10"
     guidetolerance="10"
     inkscape:pageopacity="0"
     inkscape:pageshadow="2"
     inkscape:window-width="1920"
     inkscape:window-height="1017"
     id="namedview32"
     showgrid="false"
     fit-margin-top="0"
     fit-margin-left="0"
     fit-margin-right="0"
     fit-margin-bottom="0"
     inkscape:zoom="1.5909903"
     inkscape:cx="356.25586"
     inkscape:cy="68.595639"
     inkscape:window-x="-8"
     inkscape:window-y="-8"
     inkscape:window-maximized="1"
     inkscape:current-layer="svg2" />
  <defs
     id="defs4">
    <clipPath
       clipPathUnits="userSpaceOnUse"
       id="clipPath3370">
      <rect
         style="fill:#ffffff;fill-opacity:1;stroke:#000000;stroke-opacity:1"
         id="rect3372"
         width="108.10877"
         height="139.53574"
         x="-8.799551"
         y="-11.593491" />
    </clipPath>
  </defs>
  <g
     id="g6"
     clip-path="url(#clipPath3370)"
     style="fill:none;fill-rule:evenodd;stroke:none;stroke-width:1"
     transform="translate(-0.98069548,-0.07758354)">
    <g
       id="g8">
      <path
         d="m 489.71819,8.6461303 21.42063,0.1177011 c 0,0 -39.82516,53.9640156 -43.07666,58.3621146 -1.05637,1.424184 -2.66103,2.960184 -3.47414,4.864 -2.05683,4.786514 -4.16859,15.285456 -4.16859,15.285456 l -19.5992,0.0971 c 0,0 3.04944,-10.943265 2.92389,-16.772414 -0.11083,-5.092536 -2.71007,-10.178207 -4.16858,-15.285456 -1.47323,-5.169042 -3.47415,-15.285456 -3.47415,-15.285456 l 20.14946,0 2.77873,11.116874 30.68861,-42.4999237"
         id="path10"
         inkscape:connector-curvature="0"
         style="fill:#1a1918" />
      <path
         d="m 449.15739,20.026851 c 3.9528,2.383448 6.37843,15.528705 6.37843,15.528705 0,0 -20.68402,0.305042 -31.94017,0.305042 l -9.72702,0 -11.81131,51.414804 -18.06419,0 c 0,0 11.24144,-55.874697 13.89561,-66.004843 0.86118,-3.278957 5.89192,-2.716934 14.38896,-2.716934 l 13.56898,0 c 8.76187,0 19.00285,-1.118161 23.31071,1.473226"
         id="path12"
         inkscape:connector-curvature="0"
         style="fill:#1a1918" />
      <path
         d="m 365.05992,45.066789 c 0,0 0.56301,-3.300536 -1.91068,-7.1219 -2.11175,-3.25836 -4.06363,-4.015571 -9.62207,-4.18918 -15.69545,-0.493364 -15.3904,11.137471 -15.3904,11.137471 l 26.92315,0.173609 0,0 z m 17.02253,-13.318866 c 2.30008,8.29597 -2.08429,27.791203 -2.08429,27.791203 0,0 -22.89385,-0.382528 -35.43393,0 -3.89885,0.118682 -8.56668,-0.423724 -9.72702,1.389855 -1.6331,2.542345 0.59635,6.454927 2.48644,8.107647 2.17551,1.903816 6.41275,2.119602 7.93502,2.313809 10.1782,1.292751 31.48113,0.333486 31.48113,0.333486 l -3.68993,16.340843 c 0,0 -30.10403,1.508537 -45.16095,-2.084291 -2.97294,-0.708168 -5.75951,-2.139218 -7.64273,-4.168582 -0.51396,-0.555157 -0.95926,-1.312368 -1.44576,-1.965609 -0.38841,-0.521809 -1.52031,-2.237303 -2.02838,-3.592828 -3.43884,-9.164015 0.40312,-26.721104 4.16858,-36.128368 0.43745,-1.090697 0.98673,-2.472705 1.56444,-3.647755 0.7219,-1.465379 1.33297,-3.11908 1.9097,-3.994973 0.38842,-0.604199 0.86903,-0.993594 1.27216,-1.563463 0.46492,-0.67384 1.00634,-1.327081 1.50755,-1.909702 1.38888,-1.612505 2.96607,-2.752245 4.86302,-4.168582 6.27347,-4.697257 17.62673,-8.345012 31.26535,-6.948291 5.13471,0.527693 12.88926,2.36187 16.67531,7.642728 1.01419,1.410452 1.51442,4.209778 2.08429,6.252873 l 0,0 0,0 z"
         id="path14"
         inkscape:connector-curvature="0"
         style="fill:#1a1918" />
      <path
         d="m 299.22869,18.490851 17.51589,-0.10397 c 0,0 -9.76135,46.307556 -14.73618,68.888521 l -20.14946,0 c -14.08294,0 -26.624,1.743939 -31.95978,-8.338145 -5.17591,-9.788813 -0.23639,-25.887387 2.08429,-36.823786 1.63997,-7.739831 5.09352,-23.559846 5.09352,-23.559846 l 18.14755,-0.166744 c 0,0 -5.12785,24.629947 -7.26118,36.927755 -0.76408,4.404966 -2.34029,8.55295 -0.69444,11.81131 1.56347,3.099464 3.75173,3.321134 10.42146,3.474146 2.11274,0.04904 9.03258,0 9.03258,0 l 12.50575,-52.109241"
         id="path16"
         inkscape:connector-curvature="0"
         style="fill:#1a1918" />
      <path
         d="m 217.24395,51.84049 c 1.83418,-6.51672 4.50894,-13.582712 4.16859,-19.454038 -0.36782,-6.280337 -5.63397,-11.998651 -9.03161,-13.200184 -10.23411,-3.613425 -19.81498,1.437916 -23.62262,5.557456 -4.92677,5.336766 -6.5942,11.569042 -8.33814,20.149456 -1.29864,6.370575 -2.36187,13.096215 0,18.064184 4.18231,8.782467 17.2236,6.86492 31.26535,6.948291 2.08429,-5.5859 3.80763,-11.860352 5.55843,-18.065165 l 0,0 0,0 z m 24.31804,-25.706911 c 2.00092,14.548842 -5.67614,30.606222 -10.96386,44.570482 5.39169,0.486498 10.11641,-0.07552 10.45677,0.326621 0.35408,0.521808 -3.61343,16.668444 -4.99642,16.70964 -4.27941,0.111816 -18.45946,0.229517 -24.37296,0.229517 -19.29416,0 -37.34462,1.257441 -46.54983,-8.337165 -3.73799,-3.897869 -6.32251,-10.582314 -6.94829,-15.285456 -1.04263,-7.851647 0.26385,-16.494835 2.08429,-23.62262 1.64684,-6.43433 3.75859,-12.506728 6.94829,-18.065165 8.10765,-14.1525824 22.21217,-24.65741 45.85539,-22.23276633 4.58544,0.47276628 11.1718,2.48055173 15.28546,4.86301913 0.28444,0.1677242 1.27902,0.9592644 1.50755,1.0985441 5.55844,3.5369195 10.62351,11.9780541 11.69361,19.7453491 l 0,0 0,0 z"
         id="path18"
         inkscape:connector-curvature="0"
         style="fill:#1a1918" />
      <path
         d="m 156.19335,18.574222 c -1.1672,5.315188 -2.33441,11.339525 -3.56438,16.591939 l -19.45404,0 c 1.50755,-5.822284 2.66102,-11.610238 4.16858,-16.67531 6.22541,0 12.01336,0.08337 18.84984,0.08337"
         id="path20"
         inkscape:connector-curvature="0"
         style="fill:#1a1918" />
      <path
         d="m 132.48049,40.02918 18.75862,0 c -2.45211,13.576828 -7.30826,35.476107 -11.11589,50.719387 -2.38345,9.539683 -3.97438,16.501703 -10.42244,21.538333 -0.57673,0.45216 -0.90924,0.23736 -1.38887,0.69541 -1.18878,1.13288 -6.68445,2.44623 -9.72702,2.77873 -4.94737,0.53554 -10.54014,0.0696 -16.6194,-0.0549 1.59092,-5.81541 3.39077,-12.79803 4.80809,-18.009252 14.81955,1.792981 15.19522,-12.214437 18.06418,-25.706912 1.66057,-7.795739 6.69131,-28.833839 7.64273,-31.960766"
         id="path22"
         inkscape:connector-curvature="0"
         style="fill:#1a1918" />
      <g
         transform="translate(0,8.827586)"
         id="g24"
         style="fill:#21609b">
        <path
           d="m 88.708414,66.636506 -0.402146,1.041655 C 81.45508,81.017625 69.317149,89.202759 52.00331,89.563709 43.909395,89.730452 36.197027,87.654008 31.159418,85.395126 20.286774,80.510529 11.142376,71.451464 6.1479234,61.772506 -1.0161533,47.897502 -2.3079234,28.596475 12.588138,14.180046 c 0.229517,0 -1.806713,3.125946 -1.577195,3.125946 l -0.409993,1.333947 c -10.73434464,33.60662 22.336736,62.40613 54.484843,59.112459 7.7261,-0.79154 17.578667,-5.022896 23.622621,-11.115892"
           id="path26"
           inkscape:connector-curvature="0" />
        <path
           d="m 69.254375,52.739923 c 8.088031,0.05591 16.536031,-3.72426 21.53833,-9.031601 C 86.416184,54.81833 73.743693,61.959847 56.748628,59.688215 42.51954,57.784398 28.964291,43.465073 27.567571,29.117303 26.546513,18.675249 30.186421,12.442973 36.183295,4.8836169 34.099004,8.8373946 33.320215,11.886835 33.126008,13.831847 30.84751,36.419678 51.169594,52.622222 69.254375,52.739923"
           id="path28"
           inkscape:connector-curvature="0" />
        <path
           d="M 89.980567,24.684874 C 88.723126,27.568552 81.483525,33.015172 78.286958,33.695877 65.628199,36.392215 57.520552,30.389456 53.274483,23.558866 52.64282,22.537808 51.475617,19.752215 51.266697,19.043065 49.619862,13.443433 50.377073,4.9738544 55.290115,0.58948659 53.810023,4.758069 53.594238,9.6004904 54.373027,12.748015 c 0.471785,1.903816 1.909701,5.225931 3.348598,7.316108 2.61885,3.807632 4.279417,4.732567 7.642727,6.754084 1.514422,0.910222 3.139679,1.639969 3.841962,1.841042 3.18872,0.937686 9.921226,3.411372 20.774253,-3.974375"
           id="path30"
           inkscape:connector-curvature="0" />
      </g>
    </g>
  </g>
</svg>
